X: 144
T:Flo
T:Tom Billy's Jig
R:jig
S:Denis Murphy
H:Irtrad, 11/98
B:Breathnach, CRE II, no. 31
M:6/8
L:1/8
K:Ador
G|ABA ABd|edB G2 B|dBB GBB|ABd efg|
(4ABcA ABd|edB G2 B|dBB GBB|ABA A2:|
|:d|eaa {b}aga|bab age|ege GBd|ede {a}ged|
eaa {b}aga|bab age|(4efge dBG|ABA A2:|
